packages/kaspersky-hexa-ui-icons/src/iconsSVGs/24/MotionDetector.svg

<svg width="24" height="24" viewBox="0 0 24 24" fill="none" xmlns="http://www.w3.org/2000/svg">
<path d="M8 6C7.44772 6 7 6.44772 7 7C7 7.55228 7.44772 8 8 8H12C12.5523 8 13 7.55228 13 7C13 6.44772 12.5523 6 12 6H8Z" fill="black"/>
<path d="M17 7C17 7.55228 16.5523 8 16 8C15.4477 8 15 7.55228 15 7C15 6.44772 15.4477 6 16 6C16.5523 6 17 6.44772 17 7Z" fill="black"/>
<path fill-rule="evenodd" clip-rule="evenodd" d="M7 2C5.34315 2 4 3.34315 4 5V9C4 10.6569 5.34315 12 7 12H10C10 13.1046 10.8954 14 12 14C13.1046 14 14 13.1046 14 12H17C18.6569 12 20 10.6569 20 9V5C20 3.34315 18.6569 2 17 2H7ZM17 10C17.5523 10 18 9.55228 18 9V5C18 4.44772 17.5523 4 17 4H7C6.44772 4 6 4.44772 6 5V9C6 9.55228 6.44772 10 7 10H17Z" fill="black"/>
<path d="M8.65484 14.2648C8.31804 13.8303 7.693 13.7489 7.25612 14.0838C6.84196 14.4013 6.74508 14.9792 7.0191 15.4117C7.03509 15.437 7.05234 15.4617 7.07086 15.4859C7.87234 14.8715 7.91329 14.8401 7.07086 15.4859C7.10485 15.5302 7.14073 15.573 7.17711 15.6153C7.23733 15.6854 7.32252 15.7802 7.43185 15.8914C7.64975 16.1131 7.96801 16.4044 8.38021 16.6956C9.20211 17.276 10.4342 17.88 12.0001 17.88C13.5661 17.88 14.7981 17.276 15.62 16.6956C16.0322 16.4044 16.3505 16.1131 16.5684 15.8914C16.6814 15.7765 16.954 15.4524 16.9556 15.4501C17.2607 15.014 17.1706 14.4108 16.7441 14.0838C16.3072 13.7489 15.6822 13.8303 15.3454 14.2648L15.3408 14.2706C15.3347 14.2781 15.3232 14.2921 15.3063 14.3118C15.2724 14.3512 15.2173 14.4128 15.1421 14.4894C14.9909 14.6432 14.7629 14.8524 14.4662 15.0619C13.8705 15.4827 13.0347 15.88 12.0001 15.88C10.9655 15.88 10.1298 15.4827 9.534 15.0619C9.23737 14.8524 9.00932 14.6432 8.85813 14.4894C8.78291 14.4128 8.72786 14.3512 8.69398 14.3118C8.67707 14.2921 8.66553 14.2781 8.65949 14.2706L8.65484 14.2648Z" fill="black"/>
<path fill-rule="evenodd" clip-rule="evenodd" d="M17.8588 17.3503L17.8459 17.3654C17.833 17.3803 17.8111 17.4053 17.7802 17.4389C17.7186 17.5062 17.6218 17.6077 17.4914 17.732C17.23 17.9813 16.8378 18.3187 16.3273 18.6567C15.3047 19.3339 13.8365 19.9958 12 19.9958C10.1635 19.9958 8.69526 19.3339 7.67272 18.6567C7.16219 18.3187 6.76998 17.9813 6.5086 17.732C6.37824 17.6077 6.28145 17.5062 6.21976 17.4389C6.18895 17.4053 6.16699 17.3803 6.15409 17.3654L6.14157 17.3507L6.14062 17.3496C5.7906 16.9244 5.16235 16.8622 4.73568 17.2111C4.32767 17.5446 4.25144 18.1336 4.5491 18.5583C4.56337 18.5787 4.57849 18.5986 4.59447 18.6182C5.37629 17.979 5.41624 17.9463 4.59447 18.6182C4.75826 18.8181 4.94142 19.0011 5.12822 19.1793C5.45866 19.4944 5.94243 19.9097 6.5685 20.3243C7.81915 21.1524 9.66655 21.9958 12 21.9958C14.3334 21.9958 16.1808 21.1524 17.4315 20.3243C18.0576 19.9097 18.5413 19.4944 18.8718 19.1793C19.0639 18.9961 19.4311 18.5855 19.4336 18.5822C19.7513 18.156 19.68 17.551 19.2643 17.2111C18.8376 16.8622 18.2088 16.9252 17.8588 17.3503Z" fill="black"/>
</svg>

<svg xmlns="http://www.w3.org/2000/svg" width="24" height="24" fill="none" viewBox="0 0 24 24"><path fill="#000" fill-rule="evenodd" d="M7 2C5.3431 2 4 3.3431 4 5v4c0 1.6569 1.3431 3 3 3h3c0 1.1046.8954 2 2 2s2-.8954 2-2h3c1.6569 0 3-1.3431 3-3V5c0-1.6569-1.3431-3-3-3zm10 8c.5523 0 1-.4477 1-1V5c0-.5523-.4477-1-1-1H7c-.5523 0-1 .4477-1 1v4c0 .5523.4477 1 1 1zM7 7c0-.5523.4477-1 1-1h4c.5523 0 1 .4477 1 1s-.4477 1-1 1H8c-.5523 0-1-.4477-1-1m9 1c.5523 0 1-.4477 1-1s-.4477-1-1-1-1 .4477-1 1 .4477 1 1 1m-7.3452 6.2648c-.3368-.4345-.9618-.5159-1.3987-.181-.4141.3175-.511.8954-.237 1.3279q.024.038.0518.0742c.034.0443.0698.0871.1062.1294.0602.0701.1454.1649.2548.2761.2179.2217.5361.513.9483.8042.8219.5804 2.054 1.1844 3.6199 1.1844s2.798-.604 3.6199-1.1844a7 7 0 0 0 .9484-.8042c.113-.1149.3856-.439.3872-.4413.3051-.4361.215-1.0393-.2115-1.3662-.4369-.335-1.0619-.2536-1.3987.1809l-.0046.0058a2 2 0 0 1-.0345.0412 3.7 3.7 0 0 1-.1642.1776 5 5 0 0 1-.6759.5725c-.5957.4208-1.4315.8181-2.4661.8181s-1.8703-.3973-2.4661-.8181a5 5 0 0 1-.6759-.5725 3.7 3.7 0 0 1-.1641-.1776 2 2 0 0 1-.0345-.0412zm9.204 3.0855-.0129.0151a3 3 0 0 1-.0657.0735 6 6 0 0 1-.2888.2931c-.2614.2493-.6536.5867-1.1641.9247-1.0226.6772-2.4908 1.3391-4.3273 1.3391s-3.3047-.6619-4.3273-1.3391c-.5105-.338-.9027-.6754-1.1641-.9247a6 6 0 0 1-.2888-.2931 4 4 0 0 1-.0657-.0735l-.0125-.0147-.001-.0011c-.35-.4252-.9783-.4874-1.405-.1385-.408.3335-.4842.9225-.1865 1.3472a1 1 0 0 0 .0454.0599c.1638.1999.347.3829.5337.5611.3305.3151.8142.7304 1.4403 1.145 1.2507.8281 3.098 1.6715 5.4315 1.6715s4.1808-.8434 5.4315-1.6715c.6261-.4146 1.1098-.8299 1.4403-1.145.1921-.1832.5593-.5938.5618-.5971.3177-.4262.2464-1.0312-.1693-1.3711-.4267-.3489-1.0555-.2859-1.4055.1392"/></svg>
